!!!OTL: O'er Bogie
!!!id: HA016
**kern
*clefG2
*k[b-e-]
*B-:
*M4/4
{8ff
=1
8.bb-
16ccc
8bb-
8gg
8bb-
8ff
8ff}
{8gg
=2
8.bb-
16ccc
8bb-
8gg
16gg
8.ff}
8r
{8ff
=3
8gg
8ccc
8ccc
8bb-
8.ccc
16ddd
8eee-}
{8ggg
=4
16fff
8.ddd
8ccc
8bb-
16bb-
8.gg}
8r
{8ff
=5
4bb-
16ddd
16eee-
8fff
4bb-
16ddd
16eee-
8fff}
=6yy
{8.bb-
16ccc
8bb-
8gg
16gg
8.ff}
8r
{8ff
=7
8gg
8ccc
8ccc
8bb-
8ccc
8ddd
8eee-}
{8ggg
=8
16fff
8.ddd
8ccc
8bb-
16bb-
8.gg}
8r
==
*-
!!!minrhy: 16
!!!meter: 4/4 
!!!cut: O'er Bogie
!!!key: HA016  16 Bb 4/4 
!!!bem: beginnt in Dur, endet in moll; Haupttonart: Dur,aw mit und ohne Auftakt
!!!fog: a--aw-b--c--d--aw'bv-c--
!! Haydn: Volksliedbearbeitungen, Bd1
